X:1
T:Title
%%score { ( 1 4 ) | ( 2 3 ) }
L:1/8
M:6/8
K:D
V:1 treble nm="Grand Piano"
V:4 treble 
V:2 bass 
V:3 bass 
V:1
 z3 z2[Q:1/4=100] F | F2 =F ^F2 G | F3 D2 D | [CE]2 [=C^D] [^CE]2 [CF] |[M:5/8] D-D- D3 | %5
[M:1/8] [FA] |[M:3/4] [FA]2 [=F^G] [^FA]2 [GB] | [FA]3 F2 D | EF [B,EG] [DF]2[K:bass] [G,CE] | %9
[M:5/8] [F,D]-[F,D]- [F,D]3 |[M:1/8][K:treble] [FA] |[M:3/4] A4 z2 | B4 z2 | z2 z F z2 | %14
[M:5/8] E3 z2 |[M:1/8] [CGA] |[M:3/4] A-[FA-] [FA] [Fd]2 [FA] |[M:7/8] z GG e3 e | %18
[M:3/4] z2 z c z2 | d6 |] %20
V:2
 z3 z2 [D,A,D] | [D,A,D]2 [D,^G,D] [D,A,D]2 [D,B,D] | [D,A,D]3 [D,F,A,]2 [D,F,] | %3
 [A,,A,]2 [A,,A,] [A,,A,]2 [A,,A,] |[M:5/8] [D,F,]-[D,F,]- [D,F,]3 |[M:1/8] [D,D] | %6
[M:3/4] [D,D]2 [D,D] [D,D]2 [D,D] | [D,D]3 [D,A,D]2 [F,A,] | [B,D]2 z2 z2 |[M:5/8] D,-D,- D,3 | %10
[M:1/8] [D,D] |[M:3/4] [D,D][D,D] [D,D] [D,A,]2 [D,D] | [G,DG][G,D] [G,D] [G,B,G]2 [G,DG] | %13
 D,2 .D,2 EB,, |[M:5/8] [A,,A,][A,,A,][A,,A,] [A,,A,]2 |[M:1/8] A,, | %16
[M:3/4] [D,D][D,D] [D,D] [D,A,]2 [D,D] |[M:7/8][K:treble] [G,DG][G,D][G,D] [G,B,G]3 [G,B,G] | %18
[M:3/4] [A,F]2 .[A,DF]2[K:bass] BA,, | z2 B, A,3 |] %20
V:3
 x6 | x6 | x6 | x6 |[M:5/8] x5 |[M:1/8] x |[M:3/4] x6 | x6 | G,F, E, A,2 A,, |[M:5/8] x5 | %10
[M:1/8] x |[M:3/4] x6 | x6 | z2 z .B,,3 |[M:5/8] x5 |[M:1/8] x |[M:3/4] x6 |[M:7/8][K:treble] x7 | %18
[M:3/4] z2 z[K:bass] .A,,3 | D,6 |] %20
V:4
 x6 | x6 | x6 | x6 |[M:5/8] x5 |[M:1/8] x |[M:3/4] x6 | x6 | x5[K:bass] x |[M:5/8] x5 | %10
[M:1/8][K:treble] x |[M:3/4] FF F [Fd]2 [FA] | z G G d2 B | [DFA]2 [A,DF] [^G,D]2 [G,D] | %14
[M:5/8] CCC [CA]2 |[M:1/8] x |[M:3/4] .F2 z2 z2 |[M:7/8] B3 z z z2 |[M:3/4] d2 d [EG]2 [EGc] | %19
 [DF]2 G F3 |] %20

